X:1
T:Thankfulness, 11.11.11.11
T:Thankfulness, 11.11.11.11
T:Edna Randolph Worrell, 1914
T:Public Domain Courtesy of the Cyber Hymnal™
C:Edna Randolph Worrell, 1914
Z:Public Domain
Z:Courtesy of the Cyber Hymnal™
%%score ( 1 2 ) ( 3 4 )
L:1/8
Q:1/4=112
M:4/4
K:F
V:1 treble 
V:2 treble 
V:3 bass 
V:4 bass 
V:1
 [Fc]2 [FA]2 [EA]2 [EG]2 | [CF]4 C4 | [B,D]2 [B,F]2 [B,E]2 [B,G]2 | [CF]6 z2 | %4
 [Fc]2 [FA]2 [EA]2 [EG]2 | [DF]4 [DA]4 | [EG]2 [Ec]2 [Fc]2 [F=B]2 | [Ec]6 z2 | %8
 [EB]2 [EB]2 [EA]2 [EG]2 | [EG]4 [CF]4 | [FA]2 [FA]2 [EG]2 [DF]2 | [Fc]6 z2 | %12
 [Fc]2 [FA]2 [EA]2 [EG]2 | [DF]4 [DA]4 | D2 [DA]2 [CG]2 [EA]2 | [CF]6 z2 |] %16
V:2
 x8 | x4 C4 | x8 | x8 | x8 | x8 | x8 | x8 | x8 | x8 | x8 | x8 | x8 | x8 | D2 x6 | x8 |] %16
V:3
 [F,A,]2 [F,C]2 [C,C]2 [C,B,]2 | [F,A,]4 [A,,F,]4 | [B,,F,]2 [D,F,]2 [C,G,]2 [E,G,]2 | [F,A,]6 z2 | %4
 [F,A,]2 [F,C]2 [C,B,]2 [^C,B,]2 | [D,A,]4 [F,A,]4 | [G,C]2 [G,C]2 [G,D]2 [G,D]2 | C6 z2 | %8
 C2 [C,G,]2 [C,A,]2 [C,B,]2 | [F,B,]4 [F,A,]4 | [G,=B,]2 [G,B,]2 [A,C]2 [B,D]2 | C4 B,2 z2 | %12
 [A,C]2 [F,C]2 [C,B,]2 [^C,B,]2 | [D,A,]4 [F,A,]4 | [G,B,]2 [F,B,]2 [E,B,]2 [C,B,]2 | [F,A,]6 z2 |] %16
V:4
 x8 | x8 | x8 | x8 | x8 | x8 | x8 | C6 x2 | C2 x6 | x8 | x8 | C4 B,2 x2 | x8 | x8 | x8 | x8 |] %16

